flags/language/en-za.svg

<svg width="512" height="512" viewBox="0 0 512 512" fill="none" xmlns="http://www.w3.org/2000/svg">
<g clip-path="url(#clip0_53_8183)">
<g clip-path="url(#clip1_53_8183)">
<rect y="204.863" width="512" height="307.137" fill="var(--flag-palette-blue, #0052b4)"/>
<rect width="512" height="256" fill="var(--flag-palette-bright-red, #d80027)"/>
<path fill-rule="evenodd" clip-rule="evenodd" d="M267.862 222.608L45.2547 0L0 4.88281e-05V512H45.2549L267.865 289.391L511.999 289.392V288V222.609L267.862 222.608Z" fill="var(--flag-palette-green, #6da544)"/>
<path fill-rule="evenodd" clip-rule="evenodd" d="M58.5096 -32L281.117 190.608L543.999 190.609V192L544 320L543.999 321.392L281.119 321.391L58.5097 544H-32V-31.9999L58.5096 -32ZM269.255 288.001L511.999 288L512 224H269.255L45.2547 0L0 4.95911e-05V512H45.2549L269.255 288.001Z" fill="var(--flag-palette-white, #eeeeee)"/>
<path fill-rule="evenodd" clip-rule="evenodd" d="M0 44.8V467.2L211.2 256L0 44.8Z" fill="var(--flag-palette-black, #333333)"/>
<path fill-rule="evenodd" clip-rule="evenodd" d="M0 44.8V90.0548L165.945 256L0 421.946V467.2L211.2 256L0 44.8Z" fill="var(--flag-palette-yellow, #ffda44)"/>
</g>
<path d="M512 0L512 512L16.0005 512L192.001 336L192.001 320L224.001 288L288.001 288L288.001 224L512 0Z" fill="var(--flag-palette-white, #eeeeee)"/>
<path d="M320.001 368L320.001 512L464 512L320.001 368Z" fill="var(--flag-palette-blue, #0052b4)"/>
<path d="M48.0005 512L192.001 368L192.001 512L48.0005 512Z" fill="var(--flag-palette-blue, #0052b4)"/>
<path d="M368.001 320L512 464L512 320L368.001 320Z" fill="var(--flag-palette-blue, #0052b4)"/>
<path d="M512 192L512 48.0005L368.001 192L512 192Z" fill="var(--flag-palette-blue, #0052b4)"/>
<path d="M288.001 224L224.001 288L224.001 512L288.001 512L288.001 288L512 288L512 224L288.001 224Z" fill="var(--flag-palette-bright-red, #d80027)"/>
<path d="M512 480L352.001 320L320.001 320L512 512L512 480Z" fill="var(--flag-palette-bright-red, #d80027)"/>
<path d="M32.0005 512L192.001 352L192.001 320L0.000518799 512L32.0005 512Z" fill="var(--flag-palette-bright-red, #d80027)"/>
</g>
<defs>
<clipPath id="clip0_53_8183">
<rect width="512" height="512" fill="white"/>
</clipPath>
<clipPath id="clip1_53_8183">
<rect width="512" height="512" fill="white"/>
</clipPath>
</defs>
</svg>

<svg xmlns="http://www.w3.org/2000/svg" width="512" height="512" fill="none"><g clip-path="url(#a)"><g clip-path="url(#b)"><path fill="var(--flag-palette-blue, #0052b4)" d="M0 204.9h512V512H0z"/><path fill="var(--flag-palette-bright-red, #d80027)" d="M0 0h512v256H0z"/><path fill="var(--flag-palette-green, #6da544)" fill-rule="evenodd" d="M267.9 222.6 45.3 0H0v512h45.3l222.6-222.6H512v-66.8z" clip-rule="evenodd"/><path fill="var(--flag-palette-white, #eeeeee)" fill-rule="evenodd" d="m58.5-32 222.6 222.6H544v130.8H281.1L58.5 544H-32V-32zm210.8 320H512v-64H269.3L45.3 0H0v512h45.3z" clip-rule="evenodd"/><path fill="var(--flag-palette-black, #333333)" fill-rule="evenodd" d="M0 44.8v422.4L211.2 256z" clip-rule="evenodd"/><path fill="var(--flag-palette-yellow, #ffda44)" fill-rule="evenodd" d="M0 44.8v45.3L166 256 0 422v45.2L211.2 256z" clip-rule="evenodd"/></g><path fill="var(--flag-palette-white, #eeeeee)" d="M512 0v512H16l176-176v-16l32-32h64v-64z"/><path fill="var(--flag-palette-blue, #0052b4)" d="M320 368v144h144zM48 512l144-144v144zm320-192 144 144V320zm144-128V48L368 192z"/><path fill="var(--flag-palette-bright-red, #d80027)" d="m288 224-64 64v224h64V288h224v-64z"/><path fill="var(--flag-palette-bright-red, #d80027)" d="M512 480 352 320h-32l192 192zM32 512l160-160v-32L0 512z"/></g><defs><clipPath id="a"><path fill="#fff" d="M0 0h512v512H0z"/></clipPath><clipPath id="b"><path fill="#fff" d="M0 0h512v512H0z"/></clipPath></defs></svg>
